dist/img/stack/stack-11.svg

<svg width="110" height="110" viewBox="0 0 110 110" fill="none" xmlns="http://www.w3.org/2000/svg">
<mask id="mask0_7007_781" style="mask-type:luminance" maskUnits="userSpaceOnUse" x="16" y="22" width="78" height="66">
<path d="M93.0695 22H16V88H93.0695V22Z" fill="white"/>
</mask>
<g mask="url(#mask0_7007_781)">
<path d="M90.0379 72.8832C85.9323 75.0292 64.6253 83.7868 60.0354 86.1906C55.4456 88.5943 52.9875 88.5259 49.3977 86.8112C45.808 85.0965 23.2114 75.9129 19.1163 73.9562C17.053 72.9884 16.0002 72.1627 16.0002 71.3895V63.5997C16.0002 63.5997 45.5185 57.1985 50.282 55.4733C55.0456 53.7481 56.6931 53.706 60.7408 55.1893C64.7885 56.6725 89.0536 61.0487 93.0592 62.5004V70.1797C93.0592 70.9792 92.1381 71.7577 90.0379 72.878V72.8832Z" fill="#B7B7BE"/>
<path d="M90.0378 65.1302C85.9322 67.2657 64.6252 76.0232 60.0353 78.3849C55.4455 80.7465 52.9874 80.7255 49.3976 79.0161C45.8078 77.3066 23.2112 68.123 19.1162 66.1821C15.0211 64.2413 14.9421 62.8842 18.9583 61.3168C22.9744 59.7494 45.5183 50.9287 50.2819 49.193C55.0454 47.4572 56.6929 47.4204 60.7406 48.9089C64.7883 50.3975 86.0059 58.8184 89.9904 60.2859C93.9749 61.7534 94.1592 62.9579 90.0378 65.0881V65.1302Z" fill="#F4F4F4"/>
<path d="M90.0379 60.1964C85.9323 62.3371 64.6253 71.0894 60.0354 73.4511C55.4456 75.8128 53.0085 75.7917 49.4188 74.0718C45.829 72.3518 23.2114 63.2208 19.1163 61.2694C17.053 60.2911 16.0002 59.4705 16.0002 58.6921V50.9286C16.0002 50.9286 45.5185 44.5064 50.282 42.7812C55.0456 41.056 56.6931 41.0086 60.7408 42.5129C64.7885 44.0172 89.0536 48.3513 93.0592 49.8135V57.4929C93.0592 58.2924 92.1381 59.0918 90.0379 60.1964Z" fill="#B7B7BE"/>
<path d="M90.0379 52.4067C85.9323 54.5527 64.6252 63.305 60.0354 65.6666C55.4455 68.0283 52.9874 68.0125 49.3977 66.2978C45.8079 64.5831 23.2113 55.4363 19.1162 53.4797C15.0212 51.523 14.9475 50.1923 18.9583 48.6249C22.9692 47.0574 45.5184 38.2157 50.282 36.5273C55.0455 34.8389 56.693 34.7337 60.7407 36.2012C64.7884 37.6687 86.0059 46.1633 89.9905 47.5887C93.975 49.0141 94.1592 50.2659 90.0379 52.3909V52.4067Z" fill="#F4F4F4"/>
<path d="M90.0379 47.0317C85.9323 49.1777 64.6253 57.9353 60.0354 60.2916C55.4456 62.648 53.0085 62.6323 49.4188 60.9228C45.829 59.2134 23.2114 50.0561 19.1163 48.1047C17.053 47.1369 16.0002 46.3111 16.0002 45.5326V37.7429C16.0002 37.7429 45.5184 31.3417 50.282 29.6217C55.0455 27.9018 56.6931 27.8492 60.7407 29.3324C64.7884 30.8157 89.0431 35.1919 93.0487 36.6541V44.3334C93.0592 45.1434 92.1381 45.9324 90.0379 47.0317Z" fill="#B7B7BE"/>
<path d="M90.0375 39.2519C85.9319 41.3559 64.6249 50.166 60.0351 52.5066C55.4452 54.8473 52.9871 54.842 49.3974 53.1378C45.8076 51.4336 23.211 42.2658 19.1159 40.3197C15.0209 38.3736 14.9419 37.0218 18.958 35.4544C22.9741 33.8869 45.5181 25.0505 50.2816 23.3358C55.0452 21.6211 56.6927 21.5685 60.7404 23.0518C64.7881 24.535 86.0056 32.9665 89.9902 34.4287C93.9747 35.8909 94.1589 37.1059 90.0375 39.2362V39.2519Z" fill="#B7B7BE"/>
</g>
<path d="M55.7404 28.1906L60.825 26.5233L59.446 29.8159L64.6201 31.7515L57.9511 32.4458L56.451 36.0435L54.0403 32.0303L46.3291 31.336L52.0875 29.2636L50.3557 26.0762L55.7404 28.1906Z" fill="#F4F4F4"/>
<path d="M56.0615 49.193L43.5973 44.0226L61.4514 41.2822L56.0615 49.193Z" fill="#F4F4F4"/>
<path d="M38.7813 33.7505C44.0449 33.7505 48.3242 35.4073 48.3242 37.4324C48.3242 39.4574 44.0344 41.1142 38.7813 41.1142C33.5282 41.1142 29.2332 39.4574 29.2332 37.4324C29.2332 35.4073 33.5125 33.7505 38.7813 33.7505Z" fill="#F4F4F4"/>
<path d="M72.5206 32.7354L83.0847 36.9064L72.5312 41.0774L72.5206 32.7354Z" fill="#F4F4F4"/>
<path d="M72.5209 32.7354L72.5314 41.0774L71.384 41.5245L60.8252 37.3535L72.5209 32.7354Z" fill="#F4F4F4"/>
</svg>

<svg width="110" height="110" viewBox="0 0 110 110" fill="none" xmlns="http://www.w3.org/2000/svg"><mask id="mask0_7007_781" style="mask-type:luminance" maskUnits="userSpaceOnUse" x="16" y="22" width="78" height="66"><path d="M93.07 22H16v66h77.07V22z" fill="#fff"/></mask><g mask="url(#mask0_7007_781)"><path d="M90.038 72.883c-4.106 2.146-25.413 10.904-30.003 13.308-4.59 2.403-7.047 2.335-10.637.62-3.59-1.715-26.187-10.898-30.282-12.855C17.053 72.988 16 72.163 16 71.39V63.6s29.519-6.4 34.282-8.126c4.764-1.725 6.411-1.767 10.459-.284 4.047 1.483 28.313 5.86 32.318 7.311v7.68c0 .8-.92 1.578-3.021 2.698v.005z" fill="#B7B7BE"/><path d="M90.038 65.13c-4.106 2.136-25.413 10.893-30.003 13.255-4.59 2.361-7.048 2.34-10.637.631-3.59-1.71-26.187-10.893-30.282-12.834-4.095-1.94-4.174-3.298-.158-4.865 4.016-1.568 26.56-10.388 31.324-12.124 4.763-1.736 6.41-1.773 10.459-.284 4.047 1.489 25.265 9.91 29.25 11.377 3.984 1.467 4.168 2.672.047 4.802v.042z" fill="#F4F4F4"/><path d="M90.038 60.196c-4.106 2.141-25.413 10.893-30.003 13.255s-7.026 2.34-10.616.62c-3.59-1.72-26.208-10.85-30.303-12.802C17.053 60.291 16 59.471 16 58.692V50.93s29.519-6.423 34.282-8.148c4.764-1.725 6.411-1.772 10.459-.268 4.047 1.504 28.313 5.838 32.318 7.3v7.68c0 .8-.92 1.599-3.021 2.703z" fill="#B7B7BE"/><path d="M90.038 52.407c-4.106 2.146-25.413 10.898-30.003 13.26-4.59 2.361-7.048 2.346-10.637.63-3.59-1.714-26.187-10.86-30.282-12.817-4.095-1.957-4.168-3.288-.158-4.855 4.011-1.568 26.56-10.41 31.324-12.098 4.764-1.688 6.411-1.793 10.459-.326 4.047 1.468 25.265 9.962 29.25 11.388 3.984 1.425 4.168 2.677.047 4.802v.016z" fill="#F4F4F4"/><path d="M90.038 47.032c-4.106 2.146-25.413 10.903-30.003 13.26-4.59 2.356-7.026 2.34-10.616.63-3.59-1.709-26.208-10.866-30.303-12.817C17.053 47.137 16 46.31 16 45.533v-7.79s29.518-6.401 34.282-8.121c4.764-1.72 6.411-1.773 10.459-.29 4.047 1.484 28.302 5.86 32.308 7.322v7.68c.01.81-.91 1.598-3.011 2.698z" fill="#B7B7BE"/><path d="M90.037 39.252c-4.105 2.104-25.412 10.914-30.002 13.255-4.59 2.34-7.048 2.335-10.638.63-3.59-1.703-26.186-10.871-30.281-12.817-4.095-1.946-4.174-3.298-.158-4.866 4.016-1.567 26.56-10.404 31.324-12.118 4.763-1.715 6.41-1.767 10.458-.284 4.048 1.483 25.266 9.915 29.25 11.377 3.985 1.462 4.169 2.677.047 4.807v.016z" fill="#B7B7BE"/></g><path d="M55.74 28.19l5.085-1.667-1.379 3.293 5.174 1.936-6.669.694-1.5 3.598-2.41-4.014-7.712-.694 5.758-2.072-1.731-3.188 5.384 2.115zm.322 21.003l-12.465-5.17 17.854-2.74-5.39 7.91zM38.781 33.75c5.264 0 9.543 1.657 9.543 3.682s-4.29 3.682-9.543 3.682c-5.253 0-9.548-1.657-9.548-3.682s4.28-3.681 9.548-3.681zm33.739-1.015l10.565 4.171-10.554 4.171-.01-8.342z" fill="#F4F4F4"/><path d="M72.52 32.735l.011 8.342-1.147.448-10.559-4.172 11.696-4.618z" fill="#F4F4F4"/></svg>
